!!!!SEGMENT: 065-1-BH-004-violoncello.krn
!!!COM: Chopin, Fryderyk
!!!OTL: Sonata b-minor
!!!OPS: Op. 65
!!!OMV: 4
!!!PTL: Sonate | pour Piano et Violoncelle
!!!PPR: Breitkopf & Härtel
!!!PPP: Leipzig
!!!NIFC-rismID: BRAK
!!!NIFC-shelfmark: PL-Wbfc 4692/n
!!!OMD: Allegro.
**kern	**fing	**dynam
*staff1	*	*
*I"FINALE.	*	*
*clefF4	*	*
*k[b-e-]	*	*
*M2/2	*	*
*met(c|)	*	*
*kcancel	*	*
=1	=1	=1
!LO:TX:t=P:"Allegro." nie wyświetla się:problem	!	!
1rF	.	.
=2	=2	=2
1rF	.	.
=3	=3	=3
1rF	.	.
=4	=4	=4
1rF	.	.
!!LO:LB:g=original
=5	=5	=5
1rF	.	.
=6	=6	=6
4D	.	f
(>8.A\L	.	.
)16B-Jk	.	.
!LO:TUP:a	!	!
!LO:TX:t=P:note-head-side tuplet number:problem	!	!
(>12A\L	.	.
12G#X	.	.
12GnJ)	.	.
!LO:TUP:a	!	!
!LO:TX:t=P:note-head-side tuplet number:problem	!	!
(>12G\L	.	.
12e-	.	.
12dJ)	.	.
=7	=7	=7
*Xtuplet	*	*
(>12d\L	.	.
12c#X	.	.
12cnJ)	.	.
>4c	.	.
(>12c\L	.	.
12Bn	.	.
12B-XJ)	.	.
(>8.B-L	.	.
16B-'>\Jk)	.	.
=8	=8	=8
*tuplet	*	*
!LO:TUP:a	!	!
!LO:TX:t=P:note-head-side tuplet number:problem	!	!
(>12B-\L	.	.
12En	.	.
12AJ)	.	.
(>8.A\L	.	.
16F#Jk)	.	.
(>8.G\L	.	.
16DJk)	.	.
(>8.G\L	.	.
16EJk)	.	.
!!LO:LB:g=original
=9	=9	=9
*Xtuplet	*	*
(>12Fn\L	.	.
12G	.	.
12AJ)	.	.
[>4A	.	.
12A\L]	.	<
12d	.	.
12fJ	.	.
[>4f	.	[
=10	=10	=10
12f\L]	.	.
12en	.	.
12dJ	.	.
[>4A	.	.
12A\L]	.	.
12d	.	.
12fJ	.	.
[>4f	.	.
=11	=11	=11
12f\L]	.	.
12en	.	.
12dJ	.	.
[>4c	.	.
12c\L]	.	.
12f	.	.
12aJ	.	.
[>4a	.	.
=12	=12	=12
4a]	.	.
(>[>4A	.	.
8A\L]	.	.
)8c	.	.
(>8.c	.	.
16B-Jk)	.	.
=13	=13	=13
4A	.	.
4r	.	.
2r	.	.
!!LO:LB:g=original
=14	=14	=14
4r	.	.
(>[>4A	.	.
8A\L]	.	.
8c)	.	.
(>8.c	.	.
16BnJk)	.	.
=15	=15	=15
4A	.	.
4r	.	.
2r	.	.
=16	=16	=16
4r	.	.
(>[>4A	.	.
8A\L]	.	.
8c)	.	.
(>8.c	.	.
16BnJk)	.	.
=17	=17	=17
4A	.	.
(>[>4G	.	.
8G\L]	.	.
8B-X)	.	.
(>8.B-	.	.
16AJk)	.	.
=18	=18	=18
4G	.	.
(>[>4F	.	.
!LO:TX:b:i:B:t=rall.	!	!
8F\L]	.	.
8A-X)	.	.
(>8.A-	.	.
16GJk)	.	.
=19	=19	=19
!LO:TX:a:B:t=a tempo.	!	!
2G	.	.
(>4.A-X	.	.
8An)	.	.
!!LO:LB:g=original
=20	=20	=20
4B-	.	.
(>2e-	.	>
4F)	.	]
=21	=21	=21
4F	.	.
4r	.	.
8r	.	.
(>8c\L	.	.
8.f	.	.
16e-Jk)	.	.
=22	=22	=22
(>\8AnL	.	<
8B-J)	.	.
(>2d-X	.	[
.	.	>
4c)	.	.
=23	=23	=23
4Bn	.	]
(>\8.dnL	.	.
16e-Jk)	.	.
*tuplet	*	*
!LO:TUP:a	!	!
!LO:TX:t=P:note-head-side tuplet number:problem	!	!
(>12d\L	.	.
.	.	<
12Bn	.	.
12cJ	.	.
*clefG2	*	*
!LO:TUP:b	!	!
!LO:TX:t=P:note-head-side tuplet number:problem	!	!
12e-L	.	.
12b-X	.	.
12a-XJ)	.	[
=24	=24	=24
*Xtuplet	*	*
(<12gL	4	.
12f#X	.	.
12fnJ)	.	.
(>2fn	.	>
4e-	.	]
*clefF4	*	*
!!LO:LB:g=original
=25	=25	=25
8e-X\L)	.	.
8d	.	.
8e-	.	.
8fJ	.	.
4c	.	<
4d	.	[[
.	.	.
=26	=26	=26
2ent>	.	[
(<16qqd/LL	.	.
16qqe/JJ	.	.
2f)	.	.
=27	=27	=27
(>\8e-XL	.	.
8d	.	.
*tuplet	*	*
!LO:TUP:a	!	!
!LO:TX:t=P:note-head-side tuplet number:problem	!	!
12e-	.	.
12g	.	.
12fJ)	.	.
(>4c	.	<
4d)	.	[
=28	=28	=28
1en	.	>
=29	=29	=29
2.e-X	.	.
(>8F\L	.	]
8e-J)	.	.
=30	=30	=30
4d	.	.
(>8.d\L	.	f
16c#XJk)	.	.
(>8.d\L	.	.
16c#k)	.	.
(>8.d	.	.
16cnJk)	.	.
!!LO:LB:g=original
=31	=31	=31
(>\8BnL	.	.
8A-X	.	.
8G	.	.
8A-J)	.	.
(>\8FL	.	.
8A-	.	.
8e-	.	.
8dJ)	.	.
=32	=32	=32
(>4D	.	.
4f 4A-X)	.	.
(>8D\L	.	.
8F	.	.
8c	.	.
8BnJ)	.	.
=33	=33	=33
(>4BBn	.	.
4f 4G)	.	.
2r	.	.
=34	=34	=34
2r	.	.
4r	.	.
(>[>4g	.	p
=35	=35	=35
4g]	.	.
8.f\L	.	.
16gJk	.	.
2a-X)	.	.
=36	=36	=36
(>4g	.	.
8.f\L	.	.
16e-Jk)	.	.
2f	.	.
!!LO:LB:g=original
=37	=37	=37
(>4e-	.	.
8.d\L	.	.
16e-Jk	.	.
2f)	.	.
=38	=38	=38
(>4e-	.	.
8.d\L	.	.
16cJk	.	.
2d)	.	.
*clefG2	*	*
=39	=39	=39
(>4en	.	.
4cc)	.	.
4cc	.	.
4r	.	.
*clefF4	*	*
=40	=40	=40
4r	.	.
(>4C	.	.
8A-X\L	.	.
8GJ	.	.
4F)	.	.
=41	=41	=41
2r	.	.
(>4G	.	>
8.c\L	.	.
16B-Jk)	.	]]
=42	=42	=42
4B-	.	.
(>8F\L	.	.
8B-J)	.	.
!LO:TUP:a	!	!
!LO:TX:t=P:note-head-side tuplet number:problem	!	!
(>\12B-L	.	.
12c	.	.
12B-J	.	.
8An\L	.	.
8GJ)	.	.
!!LO:LB:g=original
=43	=43	=43
(>4d	.	.
16e-\LL	.	.
16d	.	.
16B-	.	.
16GJJ)	.	.
2F#Xt>	.	<
16qqEn/LL	.	.
16qqF#/JJ	.	[
=44	=44	=44
4G	.	.
4r	.	.
4g	0	f
4g	.	.
=45	=45	=45
4g 4e-	.	.
8f\L 8d\	0	.
8gJ 8e-	0	.
2a-X 2c	.	.
=46	=46	=46
4g 4e-	.	.
8f\L 8d\	0	.
8e-J 8c	0	.
2f 2Bn	.	.
=47	=47	=47
4e- 4c	.	.
8d\L 8Bn\	0	.
8e-J 8c	0	.
2f 2A-X	4	.
=48	=48	=48
(>4e- 4An	.	.
8d\L 8A\	.	.
8cJ 8D)	.	.
(>4d 4G	.	.
4g) 4Bn	.	.
!!LO:LB:g=original
=49	=49	=49
4g 4B-X	.	.
8f\L 8A-X\	.	.
8gJ 8B-	.	.
2a-X 2c	.	.
=50	=50	=50
4g 4B-	.	.
8f\L 8B-\	.	.
8enJ 8B-	.	.
2f 2A-X	.	.
=51	=51	=51
(>4f 4G	.	.
8g\L	.	.
8fJ)	.	.
(>4e-X 4G	.	.
4c)	.	.
=52	=52	=52
2.Bn: 2.D: 2.GG:	.	.
4G	.	.
=53	=53	=53
4En 4GG 4CC	.	.
4r	.	.
4r	.	.
4AA	.	.
=54	=54	=54
(>\8DL	.	.
8F	.	.
8A	.	.
8c#XJ	.	.
4d)	.	.
4r	.	.
!!LO:LB:g=original
=55	=55	=55
4D 4AA 4DD	.	.
4r	.	.
4r	.	.
4BBn	.	.
=56	=56	=56
(>\8EnL	.	.
8G#X	.	.
8Bn	.	.
8d#XJ	.	.
4en)	.	.
4r	.	.
=57	=57	=57
(>1g	.	.
=58	=58	=58
2d	.	.
4G)	.	.
4r	.	.
=59	=59	=59
4r	.	.
(<4C	.	.
4BBn	.	.
4C)	.	.
=60	=60	=60
4D	.	.
4DD	.	.
8GG	.	.
8r	.	.
(>4G	.	.
=61	=61	=61
8.en\L	.	.
16dJk)	.	.
(>8.d\L	.	.
16cJk)	.	.
(>8.e\L	.	.
16dJk)	.	.
(>8.d\L	.	.
16cJk)	.	.
!!LO:LB:g=original
=62	=62	=62
(>8.c\L	.	.
16BnJk)	.	.
(>8.B\L	.	.
16AJk)	.	.
(>8.B\L	.	.
16GJk)	.	.
8.G\L	.	<
(>16GJk	.	.
=63	=63	=63
8.en\L	.	[
16dJk)	.	.
(>8.d\L	.	>
16cJk)	.	]
(>8.e\L	.	.
16dJk)	.	.
(>8.d\L	.	.
16cJk)	.	.
=64	=64	=64
(>8.c\L	.	.
16BnJk)	.	.
(>8.B\L	.	.
16AJk)	.	.
(>8.B\L	.	.
!LO:TX:b:i:t=ritenuto	!	!
16F#Jk)	.	.
(>8.F#\L	.	.
16F#Jk)	.	.
=65	=65	=65
!LO:TX:B:t=a tempo	!	!
(>1f#X	.	.
=66	=66	=66
2c#i	.	.
4F#X)	.	.
4r	.	.
!!LO:LB:g=original
=67	=67	=67
(>8.d#X\L	.	.
16c#XJk)	.	.
(>8.c#\L	.	.
16BnJk)	.	.
(>8.d#\L	.	.
16c#Jk)	.	.
(>8.c#\L	.	.
16BJk)	.	.
=68	=68	=68
(>8.Bn\L	.	.
16A#XJk)	.	.
(>8.A#\L	.	.
16G#XJk)	.	.
(>8.A#\L	.	.
16F#Xk)	.	.
(>8.F#	.	.
16F#Jk'>)	.	.
=69	=69	=69
2r	.	.
(>8.A#X\L	.	.
16F#Xk)	.	.
8.F#	.	<
(>16F#Jk	.	.
=70	=70	=70
4f#X)	.	[
4r	.	.
(>8.A#X\L	.	<
16F#Xk)	.	.
8.F#	.	<
(>16F#Jk	.	.
=71	=71	=71
2f#X)	.	[f
2r	.	.
=72	=72	=72
2r	.	.
(>4F#X	.	.
8G\L	.	.
8AJ)	.	.
!!LO:PB:g=original
=73	=73	=73
4D	.	.
(>8.A\L	.	.
16B-Jk)	.	.
*Xtuplet	*	*
(>12A\L	.	.
12G#X	.	.
12GnJ)	.	.
(>12G\L	.	.
12e-	.	.
12dJ)	.	.
=74	=74	=74
(>\12dL	.	.
12c#X	.	.
12cJ)	.	.
(>\8.cL	.	.
16c'>Jk)	.	.
(>\12cL	.	.
12Bn	.	.
12B-XJ)	.	.
(>\8.B-L	.	.
16B-'>Jk)	.	.
=75	=75	=75
(>12B-\L	.	.
12En	.	.
12AJ)	.	.
(>8.A\L	.	.
16F#XJk)	.	.
(>8.G\L	.	.
16DJk)	.	.
(>8.G\L	.	.
16EJk)	.	.
=76	=76	=76
(>12Fn\L	.	.
12G	.	.
12AJ)	.	.
4A	.	.
4Bn	.	<
(>\12c#XL	.	.
12d	.	.
12enJ)	.	[
!!LO:LB:g=original
=77	=77	=77
(>1f#X	.	[
*clefG2	*	*
=78	=78	=78
2.dd)	.	.
4r	.	.
*clefF4	*	*
=79	=79	=79
4D	.	.
(>8.A\L	.	.
16B-Jk)	.	.
(>12A\L	.	<
12G#X	.	.
12GnJ)	.	.
(>\12GL	.	.
12e-	.	.
12dJ)	.	[
=80	=80	=80
(>12d\L	.	[
12c#X	.	.
12cnJ)	.	.
(>8.c\L	.	.
16c'>Jk)	.	.
(>12c\L	.	.
12Bn	.	.
12B-XJ)	.	.
(>8.d\L	.	.
16d-i'>Jk)	.	.
=81	=81	=81
(12d-X\L	.	.
12G	.	.
12cJ)	.	.
(>8.c\L	.	.
16AJk)	.	.
(>8.B-\L	.	.
16FJk)	.	.
(>8.B-\L	.	.
16GJk)	.	.
!!LO:LB:g=original
=82	=82	=82
(>12A-X\L	.	.
12G	.	.
12G-XJ)	.	.
(>8.G-\L	.	.
16G-'>Jk)	.	.
(>12G-\L	.	.
12F	.	.
12EnJ)	.	.
4E	.	.
=83	=83	=83
2GG#X	.	.
4CC#X	.	.
.	.	<
4AA	.	.
=84	=84	=84
4A 4En 4AA	.	f
*clefG2	*	*
(<8.enL	.	.
16f#Jk)	.	.
*Xtuplet	*	*
(<12eL	.	.
12d#X	.	.
12dnJ)	.	.
*tuplet	*	*
!LO:TUP:b	!	!
!LO:TX:t=P:note-head-side tuplet number:problem	!	!
(<12dL	.	.
12bn	.	.
12aJ)	.	.
=85	=85	=85
*Xtuplet	*	*
(<12aL	.	.
12g#X	.	.
12gnJ)	4	.
(<8.gL	.	.
16g'<Jk)	.	.
(<12gL	.	.
12f#X	.	.
12fnJ)	.	.
(<8.fL	.	.
16f'<Jk)	.	.
*clefF4	*	*
!!LO:LB:g=original
=86	=86	=86
4en 4G 4C	.	.
!LO:TX:b:i:t=più forte	!	!
.	.	.
(<8.EnL	.	.
16BBnJk)	.	.
(<8.EL	.	.
16AAJk)	.	.
(<8.GGL	.	.
16FFJk)	.	.
=87	=87	=87
4EEn	.	.
(<8.EnL	.	.
16BBnJk)	.	.
(<8.EL	.	.
16AAJk)	.	.
(<8.GGL	.	.
16FF#XJk)	.	.
=88	=88	=88
4GG	.	.
(>8.G\L	.	.
16DJk)	.	.
(>8.G\L	.	.
16CJk)	.	.
(<8.BBnL	.	.
16AAJk)	.	.
=89	=89	=89
4BBn	.	.
4C	.	.
4AA	.	.
4BB	.	.
=90	=90	=90
4En	.	.
(>[>4Bn	.	p
*tuplet	*	*
!LO:TX:t=P:note-head-side tuplet number:problem	!	!
!LO:TUP:a	!	!
12B\L]	.	.
12A	.	.
12BJ	.	.
*Xtuplet	*	*
12d\L	.	.
12c	.	.
12BJ)	.	.
!!LO:LB:g=original
=91	=91	=91
4Bn	.	.
4r	.	.
2r	.	.
=92	=92	=92
4r	.	.
(>[>4Bn	.	.
*tuplet	*	*
!LO:TUP:a	!	!
!LO:TX:t=P:note-head-side tuplet number:problem	!	!
12B\L]	.	.
12A	.	.
12BJ	.	.
16d\LL	.	.
16c#X	.	.
16cn	.	.
16BJJ)	.	.
=93	=93	=93
4Bn	.	.
4r	.	.
2r	.	.
=94	=94	=94
4r	.	.
(>[>4en	.	.
8e\L]	.	.
8g)	.	.
(>8.g	.	>
16f#XJk)	.	.
=95	=95	=95
4en	.	]
(>[>4Bn	.	.
8B\L]	.	.
8d)	.	.
(>8.d	.	.
16c#XJk)	.	.
=96	=96	=96
4Bn	.	.
!LO:TX:i:b:t=rallent.	!	!
4r	.	.
2r	.	.
!!LO:LB:g=original
=97	=97	=97
4r	.	.
!	!	!LO:HP:t=cresc.
(>[>4G	.	<
8G\L]	.	.
8B-X)	.	.
(>8.B-	.	.
16AJk)	.	.
=98	=98	=98
!LO:TX:a:B:t=a tempo.	!	!LO:DY:rj
(>2A	.	f
4B-)	.	.
(>8F\L	.	.
8BnJ)	.	.
=99	=99	=99
4c	.	.
(>4F	.	.
4f	.	.
4G	.	.
=100	=100	=100
2G)	.	.
8r	.	.
*clefG2	*	*
(<8dL	.	.
8.g	.	.
16fJk)	.	.
=101	=101	=101
4f	.	.
(<2e-	.	>
4d)	.	]
!!LO:LB:g=original
=102	=102	=102
4c#X	.	]
(<8.enL	.	.
16fJk)	.	.
!LO:TUP:a	!	!
!LO:TX:t=P:stem-side tuplet number:problem	!	!
(<12eL	.	.
12c#	.	.
12dJ)	.	.
*Xtuplet	*	*
(<12fL	.	.
12b-	.	.
12aJ)	.	.
=103	=103	=103
*tuplet	*	*
!LO:TUP:a	!	!
!LO:TX:t=P:stem-side tuplet number:problem	!	!
(<12aL	.	.
12g#X	.	.
12gnJ)	.	.
2g	.	>
[<4f	.	.
=104	=104	=104
8fL]	.	]
8en	.	.
8f	.	.
8gJ	.	.
4d	.	.
4e	.	.
=105	=105	=105
(<2f#Xt>	.	.
4g)	.	.
4r	.	.
=106	=106	=106
!	!	!LO:HP:a
(<8fL	.	<
8en	.	.
!LO:TUP:b	!	!
!LO:TX:t=P:note-head-side tuplet number:problem	!	!
12f	.	.
12a	.	.
12gJ)	.	.
(<4d	.	.
4e)	.	.
.	.	[
!!LO:LB:g=original
=107	=107	=107
1f#X	.	.
=108	=108	=108
(>[>4fn	.	>
8.fL]	.	.
16enJk)	.	.
4f	.	]
*clefF4	*	*
(>8.G\L	.	<
16fJk)	.	[[
=109	=109	=109
4en	.	[
(>\8.eL	.	f
16d#XJk)	.	.
(>8.e\L	.	.
16d#Jk)	.	.
(>8.e\L	.	.
16dnJk)	.	.
=110	=110	=110
\8c#XL	.	.
(>8B-	.	.
8A)	.	.
(>8B-J	.	.
8G\L	.	.
8B-)	.	.
(>8F	.	.
8B-J)	.	.
=111	=111	=111
(>4En	.	.
!LO:S:s=2:note:problem:note-level slur	!	!
4g 4B-)	.	.
(>8E\L	.	.
8B-)	.	.
(>8D	.	.
8B-J)	.	.
!!LO:LB:g=original
=112	=112	=112
(>4C#X	.	.
4g) 4A	.	.
2r	.	.
=113	=113	=113
2r	.	.
4r	.	.
*clefG2	*	*
4a	.	.
=114	=114	=114
4a	.	.
8gL	.	.
8aJ	.	.
2b-	.	.
=115	=115	=115
4a	.	.
8gL	.	.
8fJ	.	.
2g	.	.
=116	=116	=116
4f	.	.
8enL	.	.
8fJ	.	.
2g	.	.
=117	=117	=117
4f	.	.
8enL	.	.
8dJ	.	.
2e	.	.
!!LO:LB:g=original
=118	=118	=118
4a	.	.
8gL	.	.
8aJ	.	.
2b-	.	]]
.	.	.
=119	=119	=119
4a	.	]
8gL	.	.
8f#XJ	.	.
2g	.	.
=120	=120	=120
4g	.	.
(<8aL	.	.
8enJ)	.	.
8fL	.	.
8g	.	.
8a	.	.
8b-J	.	.
=121	=121	=121
8bn\L	.	.
8cc	.	.
8dd	.	.
8eenJ	.	.
8ff\L	.	.
8ggJ	.	.
4aa	.	.
=122	=122	=122
(>2aa	.	.
2een)	.	.
=123	=123	=123
2a	.	.
2r	.	.
*clefF4	*	*
!!LO:LB:g=original
=124	=124	=124
*Xtuplet	*	*
(<12DDL	.	.
12AA	.	.
12FJ)	.	.
(>12F\L	.	.
12En	.	.
12DJ)	.	.
(>\12GGL	.	.
12D	.	.
12dJ)	.	.
(>12d\L	.	.
12c	.	.
12B-J)	.	.
=125	=125	=125
(>12D\L	.	.
12A	.	.
12fJ)	.	.
(>12f\L	.	.
12en	.	.
12dJ)	.	.
(>12A\L	.	.
12B-	.	.
12AJ)	.	.
(>12c\L	.	.
12B-	.	.
12AJ)	.	.
=126	=126	=126
(>12A\L	.	.
12B-	.	.
12AJ)	.	.
(>12A\L	.	.
12d	.	.
12AJ)	.	.
(>12A\L	.	.
12G	.	.
12FJ)	.	.
(>12F\L	.	.
12En	.	.
12DJ)	.	.
=127	=127	=127
(>\12DL	.	.
12Bn	.	.
12B'>J)	.	.
(>12B\L	.	.
12En	.	.
12E'>J)	.	.
(>12E\L	.	.
12A	.	.
12A'>J)	.	.
(>12A\L	.	.
12B-X	.	.
12AJ)	.	.
!!LO:LB:g=original
=128	=128	=128
(>12A\L	.	.
12d)	.	.
(>12dJ	.	.
12e-X\L	.	.
12d)	.	.
12dJ	.	.
(>12d\L	.	.
12c#X	.	.
12dJ	.	.
12f\L	.	.
12e-	.	.
12dJ)	.	.
=129	=129	=129
(>\12dL	.	.
12A	.	.
12dJ)	.	.
(>12d\L	.	.
12e-X	.	.
12cJ)	.	.
(>12B-\L	.	.
12D	.	.
12F#XJ)	.	.
(>12G\L	.	.
12A	.	.
12B-J)	.	.
=130	=130	=130
(>12A\L	.	.
12En	.	.
12AJ)	.	.
12A\L	.	.
12A	.	.
12AJ	.	.
(>12A\L	.	.
12B-	.	.
12AJ	.	.
12c\L	.	.
12B-	.	.
12AJ)	.	.
=131	=131	=131
2A	.	.
2r	.	.
!!LO:PB:g=original
=132	=132	=132
!	!	!LO:DY:rj
4D 4AA 4DD	.	f
4r	.	.
4r	.	.
4BBn	.	.
=133	=133	=133
8En\L	.	.
8G	.	.
8Bn	.	.
8d#XJ	.	.
4en	.	.
4r	.	.
=134	=134	=134
4BBn 4EEn	.	.
4r	.	.
4r	.	.
4C#X	.	.
=135	=135	=135
(>8F#X\L	.	.
8A#X	.	.
8c#X	.	.
8e#XJ)	.	.
4f#X	.	.
4r	.	.
=136	=136	=136
4r	.	.
(<4D\	.	.
4C#X	.	.
4D\)	.	.
=137	=137	=137
4En	.	.
4EEn	.	.
8AA	.	.
8r	.	.
(>4A	.	.
!!LO:LB:g=original
=138	=138	=138
!LO:TX:t=P:the slur has no ending:problem	!	!
(>8.f#X\L)	.	.
16enJk)	.	.
(>8.e\L	.	.
16dJk)	.	.
(>8.f#\L	.	.
16eJk)	.	.
(>8.e\L	.	.
16dJk)	.	.
=139	=139	=139
(>8.d\L	.	.
16c#XJk)	.	.
(>8.c#\L	.	.
16BnJk)	.	.
(>8.c#\L	.	.
16AJk)	.	.
8.A\L	.	.
(>16AJk	.	.
=140	=140	=140
1cn)	.	.
=141	=141	=141
(>2G	.	.
8C)	.	.
8r	.	.
*clefG2	*	*
8r	.	.
8a	.	.
=142	=142	=142
(<8.aL	.	.
16gJk)	.	.
(<8.gL	.	.
16fJk)	.	.
(<8.aL	.	.
16gJk)	.	.
(<8.gL	.	.
16fJk)	.	.
!!LO:LB:g=original
=143	=143	=143
(<8.fL	.	.
16enJk)	.	.
(<8.eL	.	.
16dJk)	.	.
(<8.eL	.	.
16cJk)	.	.
(<8.cL	.	.
16c'<Jk)	.	.
=144	=144	=144
2r	.	.
(<8.enL	.	.
16ck)	.	.
8.c	.	.
(>16cJk	.	.
=145	=145	=145
2cc)	.	.
(<8.enL	.	.
16ck)	.	.
8.c	.	.
(>16cJk	.	.
=146	=146	=146
4cc)	.	.
4r	.	.
2r	.	.
=147	=147	=147
1rdd	.	.
!LO:TX:a:B:t=1	!	!
.	.	.
.	.	.
*clefF4	*	*
=148	=148	=148
(>8.d\L	.	>
16ck)	.	.
8.c	.	.
16cJk	.	]
*	*	*
(>8.c\L	.	.
.	.	>
16Bnk)	.	.
8.B	.	.
16BJk	.	]]
=149	=149	=149
(>8.B-X\L	.	.
16Ak	.	.
8.D	.	.
16AJk)	.	.
4G	.	.
4r	.	.
!!LO:LB:g=original
=150	=150	=150
2r	.	.
4D	.	.
(<8GGL	.	.
8BB-J)	.	.
=151	=151	=151
4AA	.	.
.	.	.
(>8.A\L	.	<
16fJk)	.	.
4f	.	.
8en\L	.	.
8aJ	.	[[
.	.	.
=152	=153	=152
4a	.	[
4d	.	.
.	.	<
4c 4D	.	.
4c 4D	.	.
.	.	[
=153	=153	=153
4c/ 4D/ 4AA/ 4DD/	.	.
4r	.	.
4B- 4D 4GG	.	.
4r	.	.
=154	=154	=154
4d 4En 4GG#X	.	.
4r	.	.
4c 4E 4AA	.	.
4r	.	.
=155	=155	=155
*tuplet	*	*
!LO:TUP:a	!	!
!LO:TX:t=P:note-head-side tuplet number:problem	!	!
(>12f\L	.	.
12en	.	.
12e-XJ)	.	.
[>4e-	.	.
8.e-\L]	.	.
16e-k	.	.
(>8.e-	.	.
16e-'>Jk)	.	.
!!LO:LB:g=original
=156	=156	=156
4d	.	.
(>8.d\L	.	.
16gJk)	.	.
!	!	!LO:HP:t=cresc.
!	!	!LO:HP:t=cresc.
(>8.g\L	.	<
16Bnk)	.	.
(>8.c	.	.
16gJk)	.	.
=157	=157	=157
(>8.g\L	.	.
16Ak)	.	.
(>8.B-X	.	.
16gJk)	.	.
(>8.g\L	.	.
16Ak	.	.
.	.	>
8.e-	.	.
16dJk)	.	]]
=158	=158	=158
4d	.	.
(>[>4G	.	.
8G\L]	.	.
8B-)	.	.
(>8.B-	.	.
16AJk)	.	.
=159	=159	=159
!LO:TUP:a	!	!
!LO:TX:t=P:note-head-side tuplet number:problem	!	!
(>12e-\L	.	.
12d	.	.
12B-J	.	.
[>4G	.	.
8G\L]	.	.
8B-)	.	.
(>8.B-	.	<
16AJk)	.	.
=160	=160	=160
.	.	[
2en	.	.
2r	.	.
!!LO:LB:g=original
=161	=161	=161
4CC#X	.	.
8CC#L	.	.
8DD#XJ	.	.
8EEnL	.	.
8FF#X	.	.
8GG	.	.
8AAJ	.	.
=162	=162	=162
8BB-L	.	.
8C	.	.
8C#X	.	.
8D#XJ	.	.
8En\L	.	.
8F#X	.	.
8G	.	.
8AJ	.	.
=163	=163	=163
4B-: 4En: 4GG:	.	.
4r	.	.
2r	.	.
*kcancel	*	*
=164	=164	=164
1rF	.	.
!LO:TX:a:B:t=1	!	!
.	.	.
.	.	.
*kcancel	*	*
=165||;>	=165||	=165||
*k[f#]	*	*
!LO:TX:b:i:t=dolce	!	!
(>8.B\L	.	.
16AJk)	.	.
(>8.A\L	.	.
16GJk)	.	.
(>8.B\L	.	.
16AJk)	.	.
(>8.A\L	.	.
16GJk)	.	.
=166	=166	=166
(>8.e\L	.	.
16dJk)	.	.
(>8.d\L	.	.
16cJk)	.	.
(>8.e\L	.	.
16dJk)	.	.
(>8.d\L	.	.
16cJk)	.	.
!!LO:LB:g=original
=167	=167	=167
[>1g	.	<
.	.	[
=168	=168	=168
2.g]	.	>
!LO:TUP:a	!	!
!LO:TX:t=P:note-head-side tuplet number:problem	!	!
12A\L	.	]
12B	.	]
12cJ	.	.
=169	=169	=169
[>(>2d	.	.
8d\L]	.	.
8fn)	.	.
(>8.f	.	.
16eJk)	.	.
=170	=170	=170
(>8d\L	.	.
8cJ)	.	.
(>[>4a	.	.
8a\L]	.	.
8c#X)	.	.
(>8.d	.	.
16cnJk)	.	.
=171	=171	=171
[>2B	.	.
\8BL]	.	.
8cJ	.	.
!LO:TUP:a	!	!
!LO:TX:t=P:note-head-side tuplet number:problem	!	!
12B\L	.	.
12A	.	.
12eJ	.	.
=172	=172	=172
4e	.	.
(>8F#\L	.	.
8EJ	.	.
8D\L	.	.
8F#	.	.
8B	.	.
8AJ)	.	.
!!LO:LB:g=original
=173	=173	=173
4G	.	.
*Xtuplet	*	*
!	!	!LO:DY:rj
(>\12DL	.	f
12E-X	.	.
12EnJ	.	.
4Fn)	.	.
(>\12CL	.	.
12D-X	.	.
12DnJ	.	.
=174	=174	=174
4E-X)	.	.
(>12BB-XL	.	.
12BBn	.	.
12CJ	.	.
8D-X\L	.	<
8FnJ)	.	.
(>4A-X	.	[
=175	=175	=175
8G#X'>)	.	[
8r	.	.
12En\L	.	.
12F#X	.	.
12G#J	.	.
12A\L	.	.
12B	.	.
12cJ	.	.
12d\L	.	.
12e	.	.
12f#J	.	.
=176	=176	=176
(>\8aL	.	.
8gJ)	.	.
(>\12d#XL	.	.
12e	.	.
12gJ)	.	.
(>12B\L	.	.
12c	.	.
12eJ	.	.
12dn\L	.	.
12c#X	.	.
12cnJ)	.	.
!!LO:LB:g=original
=177	=177	=177
4B	.	.
2e	.	.
(>8.fn\L	.	.
16eJk)	.	.
=178	=178	=178
4d#X	.	.
(>\8.e-iL	.	.
16dnJk)	.	.
4c#X	.	.
(>8.d-X\L	.	.
16cnJk)	.	.
=179	=179	=179
4B	.	.
12E\L	.	.
12F#	.	.
12G#J	.	.
12A\L	.	.
12B	.	.
12cJ	.	.
12d\L	.	.
12e	.	.
12f#J	.	.
*clefG2	*	*
=180	=180	=180
12gL	1	.
12a	.	.
12bJ	.	.
!LO:TX:B:t=2.|a	!	!
12cL	1	.
12d	.	.
12eJ	.	.
12f#L	0	.
12g	.	.
12aJ	.	.
12BL	.	.
12c#X	.	.
12d#XJ	.	.
!!LO:LB:g=original
=181	=181	=181
!LO:TX:B:t=2.|a	!	!
12eL	0	.
12f#	.	.
12gJ	.	.
12aL	.	.
12b	.	.
12ccJ	.	.
12dd\L	.	.
12ee	.	.
12ff#J	.	.
8gg	.	.
16r	.	.
*clefF4	*	*
16A	.	.
=182	=182	=182
[>4A	.	.
12A\L]	.	.
12B	.	.
12AJ	.	.
12B\L	.	.
12A	.	.
12BJ	.	.
12A\L	.	.
12D	.	.
12AJ	.	.
=183	=183	=183
4G	.	]
12GGL	.	.
12GG	.	.
12GGJ	.	.
[<2GG	.	.
=184	=184	=184
4GG]	.	.
12GGL	.	.
12GG	.	.
12GGJ	.	.
2GG	.	.
=185	=185	=185
(>\4D 4GG\	.	.
4G\ 4GG\	.	.
4F#\ 4GG\	.	.
4G\) 4GG\	.	.
=186	=186	=186
(>\4F# 4GG\	.	.
4G\ 4GG\	.	.
4A\ 4GG\	.	.
4d\ 4GG\)	.	.
!!LO:LB:g=original
=187	=187	=187
(>\4F# 4GG\	.	.
4G\ 4GG\	.	.
4F#\ 4GG\	.	.
4G\ 4GG\)	.	.
=188	=188	=188
(>\4F# 4GG\	.	.
4G\ 4GG\	.	.
4A 4GG	.	.
4d) 4GG	.	.
=189	=189	=189
(>2A 2GG	.	.
!LO:TX:b:i:t=rall.	!	!
2d 2GG)	.	.
=190	=190	=190
(>2A 2GG	.	.
2d 2GG)	.	.
=191	=191	=191
!LO:TX:B:a:t=a tempo.	!	!
(>8.B\L	.	f
16Gk)	.	.
8.G	.	.
(>16GJk	.	.
2g)	.	.
=192	=192	=192
(>8.B\L	.	<
16Gk)	.	.
8.G	.	.
(>16GJk	.	.
2g)	.	.
.	.	[
=193	=193	=193
4g 4B	.	.
8g\L 8B\	.	.
8gJ 8B	.	.
(>8g\L 8B\	.	.
8d) 8G	.	.
8d 8G	.	.
8dJ 8G	.	.
!!LO:LB:g=original
=194	=194	=194
[>8d\L 8B\	.	.
8d] 8G	.	.
8d 8G	.	.
8dJ 8G	.	.
(>8d\L 8G\	.	.
8B) 8G	.	.
8B 8G	.	.
8BJ 8G	.	.
=195	=195	=195
(>8B\L 8G\	.	.
8B 8D)	.	.
(>8B 8D	.	.
8BJ) 8D	.	.
(>8B\L 8D\	.	.
8B 8G)	.	.
(>8B 8G	.	.
8BJ) 8D	.	.
=196	=196	=196
(>8B\L 8D\	.	.
8B 8G)	.	.
(>8B 8G	.	.
8BJ) 8D	.	.
(>\8BL 8D\	.	.
8D 8GG)	.	.
8D 8GG	.	.
8DJ 8GG	.	.
=197	=197	=197
4D/ 4GG/	.	.
4G	.	.
4B	.	.
4d	.	.
=198	=198	=198
4g	.	.
4r	.	.
4c/ 4E-X/ 4GG/ 4CC/	.	.
4r	.	.
=199	=199	=199
4B:\ 4D:\ 4GG:\	.	.
4r	.	.
2r	.	.
==	==	==
*-	*-	*-
!!!system-decoration: s1{(s2,s3)}
!!!RDF**kern: N = linked
!!!RDF**kern: > = above
!!!RDF**kern: < = below
!!!RDF**dynam: > = "dim." fontstyle="italic"
!!!RDF**dynam: < = "cresc." fontstyle="italic"
!!title: @{OTL}; @{OPS} @{ONM} publisher: @{PPR}
!!!RDF**kern: i=editorial accidental, bracket
!!!ENC: Jędrzej Mróz
!!!END: 2020-03-26
!!!EED: Mateusz Mrugas
!!!EST: 2020-04-01
!!!RDF**kern: i = marked note, color="hotpink", text=
!!!RDF**kern: j = marked note, color="magenta", text="extra)"
